!!!COM: Palestrina, Giovanni Perluigi da
!!!OPR: Veni sponsa Christi
!!!OTL: Gloria
**kern	**kern	**kern	**kern
*ICvox	*ICvox	*ICvox	*ICvox
*Ibass	*Itenor	*Icalto	*Icant
!Bassus	!Tenor	!Altus	!Cantus
*clefF4	*clefGv2	*clefG2	*clefG2
*k[]	*k[]	*k[]	*k[]
*G:mix	*G:mix	*G:mix	*G:mix
*M4/2	*M4/2	*M4/2	*M4/2
=1	=1	=1	=1
0r	0r	1r	0dd
.	.	[1g	.
=2	=2	=2	=2
0r	0r	2g]	1b
.	.	2e	.
.	.	2f	2dd
.	.	2g	2dd
=3	=3	=3	=3
0r	0r	4c	1ee
.	.	4d	.
.	.	4e	.
.	.	4f	.
.	.	4g	1dd
.	.	4a	.
.	.	2b	.
=4	=4	=4	=4
0r	1r	2a	2cc
.	.	1g	2b
.	[1d	.	1a
.	.	2f#	.
=5	=5	=5	=5
1.G	1d]	1g	1b
.	1B	1r	2.g
2E	.	.	.
.	.	.	4g
=6	=6	=6	=6
2F	1d	0r	2a
2G	.	.	2b
4C	1e	.	1cc
4D	.	.	.
4E	.	.	.
4F	.	.	.
=7	=7	=7	=7
1G	1d	2r	1b
.	.	2g	.
1D	1d	2f	2r
.	.	2d	2dd
=8	=8	=8	=8
0r	2r	1f	2cc
.	2d	.	2a
.	2c	2e	1cc
.	2A	2c	.
=9	=9	=9	=9
0r	2B	2d	2b
.	2c	2e	2g
.	2G	4d	2.b
.	.	8e	.
.	.	8f#	.
.	2G	[2g	.
.	.	.	4b
=10	=10	=10	=10
1r	2d	2g]	1a
.	2d	2f#	.
2.G	1B	1g	1g
4G	.	.	.
=11	=11	=11	=11
2F	2.d	0r	1r
2D	.	.	.
.	4d	.	.
2F	2c	.	2.a
2F	2A	.	.
.	.	.	4a
=12	=12	=12	=12
2E	2c	1r	2g
2C	2c	.	2e
1E	2B	2.g	4g
.	.	.	4a
.	2G	.	4b
.	.	4g	4cc
=13	=13	=13	=13
0D	1.A	2f	2.dd
.	.	2d	.
.	.	.	4dd
.	.	2f	2dd
.	2B	2f	2dd
=14	=14	=14	=14
0C	0c	2e	4ee
.	.	.	4ff
.	.	2c	4gg
.	.	.	4ff
.	.	1e	4ee
.	.	.	4dd
.	.	.	[2cc
=15	=15	=15	=15
1r	1.G	1d	2cc]
.	.	.	2b
[1C	.	2e	2cc
.	2G	[2g	[2ee
=16	=16	=16	=16
2C]	1.c	2g]	2ee]
2C	.	2g	2ee
2G	.	2g	2dd
[2G	[2B	[2g	[2dd
=17	=17	=17	=17
4G]	4B]	4g]	4dd]
4G	4B	4g	4dd
2F	2A	2a	2dd
1E	2B	1g	1ee
.	2c#	.	.
=18	=18	=18	=18
2D	1d	2f#	1a
1d	.	2a	.
.	1r	2f#	1r
2B	.	[2g	.
=19	=19	=19	=19
2c	0r	2g]	2r
2d	.	2f	1a
2.c	.	2.e	.
.	.	.	2g
4B	.	4d	.
=20	=20	=20	=20
2A	0r	2c	2a
1G	.	2B	2b
.	.	1A	2cc
2F#	.	.	4a
.	.	.	4a
=21	=21	=21	=21
0G	2r	1G	1b
.	2.d	.	.
.	.	2.g	1dd
.	4d	.	.
.	2B	.	.
.	.	4g	.
=22	=22	=22	=22
0r	2c	2e	2r
.	2d	2f#	2.dd
.	4G	1g	.
.	4A	.	4dd
.	4B	.	2b
.	4G	.	.
=23	=23	=23	=23
0r	2A	1f	2cc
.	2B	.	2dd
.	1c	1e	2cc
.	.	.	2g
=24	=24	=24	=24
1r	4F	1f	1a
.	4G	.	.
.	4A	.	.
.	4B	.	.
2r	2c	2e	2g
[2c	[2e	[2g	[2cc
=25	=25	=25	=25
2c]	2e]	2g]	2cc]
2c	2e	2g	2cc
1F	1f	1a	1cc
=26	=26	=26	=26
2F	2c	2f	2a
2A	2c	2e	2cc
2G	2e	2.g	2b
2G	2d	.	2b
.	.	4f	.
=27	=27	=27	=27
2A	2c	2e	0a
2.d	2.f	2d	.
.	.	2A	.
4d	4f	.	.
2c#	2e	[2a	.
=28	=28	=28	=28
2d	2f	4a]	0r
.	.	4a	.
2B	2d	2g	.
2c	2e	2a	.
2d	2f	2a	.
=29	=29	=29	=29
2.A	2.e	1.cc	0r
4B	4d	.	.
2c	4e	.	.
.	4f	.	.
2G	[2g	2b	.
=30	=30	=30	=30
1d	2g]	2a	1r
.	2f#	2a	.
1G	1g	1b-	[1dd
=31	=31	=31	=31
0A	1f	1a	1dd]
.	1e	2.a	1cc#
.	.	4g	.
=32	=32	=32	=32
0D	2.a	4f	1dd
.	.	4e	.
.	.	2d	.
.	4g	.	.
.	4f	[1a	[1ff
.	4e	.	.
.	[2d	.	.
=33	=33	=33	=33
1A	2d]	1a]	2ff]
.	2c#	.	2ee
1B-	1d	2f	1dd
.	.	2g	.
=34	=34	=34	=34
2.A	2r	1a	1cc#
.	2.e	.	.
4G	.	.	.
1F	.	2r	1r
.	4e	.	.
.	2d	[2a	.
=35	=35	=35	=35
1E	2e	4a]	2r
.	.	4a	.
.	2e	2g	2.ee
1r	1f	2a	.
.	.	.	4ee
.	.	2a	2dd
=36	=36	=36	=36
0r	2.c	1.cc	2ee
.	.	.	2ee
.	4d	.	.
.	4e	.	[1gg
.	4f	.	.
.	2g	2b	.
=37	=37	=37	=37
1r	1d	2.a	2gg]
.	.	.	2ff
.	.	4b	.
2r	2.a	[1cc	4ee
.	.	.	4dd
[2A	.	.	4cc
.	8g	.	4b
.	8f	.	.
=38	=38	=38	=38
2A]	0e	2cc]	2a
2G	.	2b	2b
1A	.	2r	2.cc
.	.	[2a	.
.	.	.	4dd
=39	=39	=39	=39
1.c	2r	2a]	1ee
.	1e	2g	.
.	.	2a	1r
2B	2d	2b	.
=40	=40	=40	=40
1A	1e	1cc	2r
.	.	.	1ee
1G	2.g	2.b	.
.	.	.	2dd
.	4f	4a	.
=41	=41	=41	=41
2.C	4e	2.g	1ee
.	4d	.	.
.	1c	.	.
4D	.	4f	.
4E	.	2e	[1gg
4F	.	.	.
2G	2B	2d	.
=42	=42	=42	=42
0C	2.e	1c	2gg]
.	.	.	2ff
.	4d	.	.
.	1c	1g	1ee
=43	=43	=43	=43
0G	0B	0g	0dd
=44	=44	=44	=44
0r	1d	0r	0r
.	1d	.	.
=45	=45	=45	=45
0r	1B	0r	1dd
.	1d	.	1dd
=46	=46	=46	=46
1G	2e	0r	1b
.	4d	.	.
.	4c	.	.
1G	4B	.	1dd
.	4c	.	.
.	[2d	.	.
=47	=47	=47	=47
1E	4d]	1g	1ee
.	4c	.	.
.	1c	.	.
1G	.	1g	2dd
.	2B	.	[2ee
=48	=48	=48	=48
1A	1c	1e	2ee]
.	.	.	4dd
.	.	.	4cc
1G	2.d	1g	4b
.	.	.	4a
.	.	.	4b
.	4e	.	4cc
=49	=49	=49	=49
1F	2.f	2a	4dd
.	.	.	4cc
.	.	2a	1cc
.	4e	.	.
1G	4d	2.g	.
.	4c	.	.
.	2d	.	2b
.	.	4f	.
=50	=50	=50	=50
2r	1G	4g	2r
.	.	4f	.
1G	.	4e	1b
.	.	4d	.
.	2r	1e	.
2E	[2c	.	2g
=51	=51	=51	=51
2F	2c]	1d	2a
2G	2B	.	2b
1F	2c	1r	1a
.	2d	.	.
=52	=52	=52	=52
0C	2.e	2r	2g
.	.	1g	4gg
.	4d	.	4ff
.	1c	.	4ee
.	.	.	4dd
.	.	2g	4cc
.	.	.	4b
=53	=53	=53	=53
0r	1d	2f#	2a
.	.	1g	2g
.	1d	.	1a
.	.	2f#	.
=54	=54	=54	=54
1G	1d	0g	2b
.	.	.	2dd
1G	2B	.	2dd
.	2d	.	[2b
=55	=55	=55	=55
1E	1e	2r	2b]
.	.	2g	2cc
1G	1d	1g	4b
.	.	.	4cc
.	.	.	4dd
.	.	.	4b
=56	=56	=56	=56
1A	2.c	1e	4cc
.	.	.	4dd
.	.	.	1ee
.	4A	.	.
1G	4B	1g	.
.	4c	.	.
.	4d	.	[2dd
.	4e	.	.
=57	=57	=57	=57
1F	2.f	2a	2dd]
.	.	2a	1cc
.	4e	.	.
1G	1d	1g	.
.	.	.	2b
=58	=58	=58	=58
2r	2c	2g	2cc
1C	1g	1cc	1ee
2C	2g	2cc	2ee
=59	=59	=59	=59
1G	0g	0b	2dd
.	.	.	1dd
2.G	.	.	.
.	.	.	2b
4G	.	.	.
=60	=60	=60	=60
2A	0r	2r	2cc
2B	.	1g	2dd
2.c	.	.	[1cc
.	.	2e	.
4B	.	.	.
=61	=61	=61	=61
2A	0r	2f	2cc]
2E	.	2g	2g
4F	.	2f	4a
4G	.	.	4b
2A	.	2c	[2cc
=62	=62	=62	=62
1G	2r	1d	2cc]
.	1g	.	2b
1C	.	2c	2.ee
.	2e	[2cc	.
.	.	.	4ee
=63	=63	=63	=63
0r	2f	2cc]	2a
.	2g	2b	2b
.	2f	2a	2cc
.	2c	[2g	2cc
=64	=64	=64	=64
0r	1d	2g]	1a
.	.	2f#	.
.	2G	2g	1b
.	2g	2e	.
=65	=65	=65	=65
2r	1g	1e	2r
2c	.	.	2ee
1c	2e	1g	1ee
.	2g	.	.
=66	=66	=66	=66
2A	2f	0r	1cc
2c	2e	.	.
2B	2d	.	1r
2A	[2e	.	.
=67	=67	=67	=67
2G	4e]	0r	0r
.	4d	.	.
1A	4c	.	.
.	8B	.	.
.	8A	.	.
.	1B	.	.
2G#	.	.	.
=68	=68	=68	=68
2A	1A	2r	2r
1F	.	1a	1cc
.	2.f	.	.
2F	.	2a	2cc
.	4f	.	.
=69	=69	=69	=69
1F	1f	2cc	2a
.	.	2a	2cc
1G	2d	4g	1b
.	.	4f	.
.	4g	4e	.
.	4f	4d	.
=70	=70	=70	=70
0A	4e	2c	[0a
.	8d	.	.
.	8e	.	.
.	2f	1d	.
.	1e	.	.
.	.	2c#	.
=71	=71	=71	=71
2.D	2r	2d	1a_
.	1d	1f	.
4E	.	.	.
4F	.	.	1a_
4G	.	.	.
2A	2c	2e	.
=72	=72	=72	=72
1D	2d	2f	0a]
.	2d	2f	.
1r	2f	2d	.
.	2e	2c	.
=73	=73	=73	=73
0r	1d	1.f	2r
.	.	.	1a
.	[1c	.	.
.	.	4e	2g
.	.	4d	.
=74	=74	=74	=74
1.A	2c]	1e	2a
.	2c	.	2a
.	2A	[1e	2cc
2G	2B	.	2b
=75	=75	=75	=75
2A	4c	1e]	1a
.	4B	.	.
2A	4c	.	.
.	4d	.	.
2c	4e	2r	1g
.	4f	.	.
2B	[2g	2g	.
=76	=76	=76	=76
1A	2g]	1.cc	1r
.	2f#	.	.
1G	2g	.	1dd
.	2g	2b	.
=77	=77	=77	=77
0r	2d	4a	2ff
.	.	4b	.
.	2e	1cc	2ee
.	2f	.	2dd
.	2g	2b	2dd
=78	=78	=78	=78
1r	1a	2cc	1cc
.	.	2f	.
1d	1f	2.a	1dd
.	.	4b	.
=79	=79	=79	=79
1c	1g	2.cc	1ee
.	.	4b	.
2d	2f	2a	1dd
2d	2a	[2f	.
=80	=80	=80	=80
2f	2a	2f]	1cc
2e	2g	2g	.
1d	1f	2a	2ff
.	.	2b	2ff
=81	=81	=81	=81
0c	1.g	1cc	2ee
.	.	.	4cc
.	.	.	4dd
.	.	2cc	4ee
.	.	.	4ff
.	2e	2cc	[2gg
=82	=82	=82	=82
1d	1f	1a	2gg]
.	.	.	1ff
1c	1g	2cc	.
.	.	2cc	2ee
=83	=83	=83	=83
0F	2a	2cc	2.ff
.	2f	2cc	.
.	.	.	8ee
.	.	.	8dd
.	2f	2a	1cc
.	2f	2cc	.
=84	=84	=84	=84
0r	2d	2b	1r
.	2f	2a	.
.	2e	2g	2r
.	4d	[2a	2ff
.	4e	.	.
=85	=85	=85	=85
0r	4f	4a]	2ff
.	4g	4b	.
.	4a	4cc	2ff
.	4f	4a	.
.	2g	2b	2dd
.	[2a	[2cc	2ff
=86	=86	=86	=86
0r	2a]	4cc]	1ee
.	.	8b	.
.	.	8a	.
.	2e	2g	.
.	2f	2a	1dd
.	2g	2b	.
=87	=87	=87	=87
2r	4c	2cc	0ee
.	4d	.	.
2c	4e	4c	.
.	4f	4d	.
2c	1g	4e	.
.	.	4f	.
2c	.	4g	.
.	.	4e	.
=88	=88	=88	=88
2A	1c	2f	2r
2c	.	2e	2a
1B	2r	1d	2a
.	2d	.	2g
=89	=89	=89	=89
1A	2e	2r	1a
.	2f	2a	.
1r	1e	2a	2cc
.	.	2g	2b
=90	=90	=90	=90
2r	0r	1a	4a
.	.	.	4b
2A	.	.	4cc
.	.	.	4dd
2A	.	2cc	1ee
2G	.	2b	.
=91	=91	=91	=91
1A	2r	1a	1cc
.	2e	.	.
2c	2e	1g	2r
2B	2d	.	2dd
=92	=92	=92	=92
1A	1e	2r	2cc
.	.	1cc	1ee
1G	[1g	.	.
.	.	4b	4dd
.	.	4a	4cc
=93	=93	=93	=93
0r	2g]	2b	1dd
.	2f	2.a	.
.	1e	.	1g
.	.	4g	.
.	.	[2g	.
=94	=94	=94	=94
2r	1d	2g]	0a
2D	.	4f	.
.	.	4e	.
2D	1r	4f	.
.	.	4d	.
2C	.	2e	.
=95	=95	=95	=95
1D	1A	2f	1a
.	.	2d	.
2F	2A	2d	1r
2E	2G	2c	.
=96	=96	=96	=96
1D	1A	2d	2r
.	.	1f	2a
1C	2.c	.	2a
.	.	2e	2g
.	4B	.	.
=97	=97	=97	=97
1F	1A	2d	2a
.	.	4c	1cc
.	.	4d	.
1G	4G	4e	.
.	4A	4f	.
.	4B	4g	2b
.	4c	4e	.
=98	=98	=98	=98
0D	1d	2f#	2a
.	.	1g	2g
.	1d	.	1a
.	.	2f#	.
=99	=99	=99	=99
0G	0d	0g	0b
==	==	==	==
*-	*-	*-	*-
!!!CDT: 1525/^1526/-1594/2/2
!!!OCY: Italia
!!!AGN: Mass (Parody)
!!!AST: renaissance, vocal
!!!ASW: Motet 1563 (Palestrina)
!!!PWK: Masses, Book 9
!!!RNB: Cadence finals: G
!!!YOR: Le Opere Complete, v. 25, p. 30
!!!YOO: Rome, Italy: Fratelli Scalera
!!!END: 1992//
!!!EED: John Miller
!!!YEC: Copyright 2000, John Miller
!!!YEN: United States of America
!!!YEM: Rights to all derivative electronic formats reserved.
!!!YEM: Refer to licensing agreement for further details.
!!!YEM: This file must be accompanied by the licensing agreement.
!!!YEM: A copy of the licensing agreement may be found at http://www.music-cog.ohio-state.edu/HumdrumDatabases/Palestrina/license.txt
!!!EMD: converted to Humdrum by Bret Aarden
